X:1
T:Quam dilecta tabernacula
T:Leon Leoni
T:Quam dilecta tabernacula
C:Leon Leoni
%%score [ 1 2 ] { ( 3 5 ) | 4 }
L:1/8
Q:1/4=116
M:3/1
K:C
V:1 alto1 nm="Cantus" snm="C"
V:2 bass nm="Bassus" snm="B"
V:3 treble nm="Partitura" snm="Part."
V:5 treble 
V:4 bass 
V:1
 x8 | z2 z2 z2 z2 z2 z2 x4 z2 z2 x4 |[M:3/2][K:treble][Q:1/4=174] A8 A4 | c8 B4 | A8 G4 | %5
w: ||Quam di-|le- cta|ta- ber-|
 F6 F2 A4 | ^G8 G4 | E6 F2 G4 | E4 D8 | E12 | G6 A2 F4 | G4 E8 |[M:4/4][Q:1/4=116] D4 d4 | %13
w: na- cu- la|tu- a,|Do- mi- ne|vir- tu-|tum,|Do- mi- ne|vir- tu-|tum! Con-|
 B4 c3 c | A2 B3 B G2 | A3 G ^F2 G2- | GE A4 ^G2 | A8 | z8 | A4 ^F2 G2- | GG E2 F3 F | D2 A2 c4 | %22
w: cu- pi- scit,|et de- fi- cit|a- ni- ma me-||a,||Con- cu- pi-|* scit, et de- fi-|cit a- ni-|
 B4 ABcA | B2 c2 B4 | A8 | E2 G3 G F2 | E4 E4 | D4 z2 A2 | _B4 A4 | z8 | z2 E2 F4 | E4 z4 | %32
w: ma me- * * *||a|in a- tri- a|Do- mi-|ni; cor|me- um||cor me-|um|
 z4 z2 A2 | c2 c2 B4 | A4 z2 D2 | F8 | E4 z2 G2 | c2 c2 B4 | A4 z2 A2 | A2 A2 B4 | G2 G2 G2 G2 | %41
w: et|ca- ro me-|a, cor|me-|um et|ca- ro me-|a ex-|sul- ta- ve-|runt, ex- sul- ta-|
 c4 A4 | z2 D2 G3 F | E2 D2 E4 | !fermata!D8 | A8 | A8 | B2 G2 A3 A | A2 A2 A2 B2 | GABG c4- | %50
w: ve- runt|in De- *|* um vi-|vum.|Be-|a-|ti qui ha- bi-|tant in do- mo|tu- * * * *|
 c2 B2 A3 A | B4 z2 G2 | G4 E4 | z2 c2 c4 | A6 B2 | c3 c c2 G2 | G2 A2 F2 G2 | E6 E2 | %58
w: * a, Do- mi-|ne; Be-|a- ti,|Be- a-|ti qui|ha- bi- tant in|do- mo tu- a,|Do- mi-|
 D2 D2 A2 AA | E2 E2 G4 | D4 E4 | FG A4 ^G2 | A4 z2 E2 | A2 AA B2 B2 | c4 G2 C2 | F4 E4 | %66
w: ne; in sae- cu- la|sae- cu- lo-|rum lau-|da- * * bunt|te, in|sae- cu- la sae- cu-|lo- rum lau-|da- bunt|
 D4 z2 D2 | GFGA _B2 B2 | A8 | z4 d4 | _B6 A2 | G4 G4 | ^F6 G2 | !fermata!A8 |] %74
w: te, lau-|da- * * * * bunt|te,|lau-|da- *|* bunt|te. _|_|
V:2
 x8 | z2 z2 z2 x18 |[M:3/2] D,8 D,4 | A,8 E,4 | F,8 C,4 | D,6 D,2 A,,4 | E,8 E,4 | C,6 C,2 C,4 | %8
w: ||Quam di-|le- cta|ta- ber-|na- cu- la|tu- a,|Do- mi- ne|
 C,4 G,8 | C,12 | C6 A,2 _B,4 | G,4 A,8 |[M:4/4] D,8 | G,4 E,2 F,2- | F,F, D,2 E,3 E, | %15
w: vir- tu-|tum,|Do- mi- ne|vir- tu-|tum!|Con- cu- pi-|* scit, et de- fi-|
 C,2 D,3 D, B,,2 | C,3 D, E,4 | A,,4 A,4 | ^F,2 G,3 G, E,2 | F,3 F, D,2 E,2- | E,D, ^C,2 D,4- | %21
w: cit a- ni- ma|me- * *|a, Con-|cu- pi- scit, et|de- fi- cit a-|* ni- ma me-|
 D,2 C,B,,A,,B,,C,D, | E,F,G,E,F,G,A,F, | ^G,2 A,4 G,2 | A,4 A,,2 C,2- | C,C, G,,2 A,,4- | %26
w: |||a in a-|* tri- a Do-|
 A,,4 A,,4 | D,8 | z4 z2 D,2 | C,2 A,,2 E,4 | A,,4 z4 | z2 A,2 F,2 D,2 | A,4 D,4 | z8 | %34
w: * mi-|ni;|et|ca- ro me-|a,|et ca- ro|me- a,||
 z2 A,2 _B,4 | A,4 z2 A,2 | C2 C2 B,4 | A,4 z4 | z2 A,,2 A,,2 A,,2 | D,4 G,,2 G,2 | G,2 G,2 C4 | %41
w: cor me-|um et|ca- ro me-|a|ex- sul- ta-|ve- runt, ex-|sul- ta- ve-|
 F,6 D,2 | G,4 G,4 | A,8 | D,8 | D,8 | D,8 | B,,2 C,2 F,,3 F,, | F,,2 F,2 F,2 D,2 | E,4 C,4 | %50
w: runt in|De- um|vi-|vum.|Be-|a-|ti qui ha- bi-|tant in do- mo|tu- a,|
 D,4 D,4 | G,,2 G,2 G,4 | C,4 z2 C,2 | C4 A,2 F,2 | F,4 D,2 G,2 | C,3 C, C,2 C2 | C2 A,2 _B,2 G,2 | %57
w: Do- mi-|ne; Be- a-|ti, Be-|a- ti, Be-|a- ti qui|ha- bi- tant in|do- mo tu- a,|
 A,4 A,4 | D,6 D,2 | A,2 A,A, E,2 E,2 | G,4 C,2 A,,2 | D,4 E,4 | A,,2 A,,2 A,2 A,A, | D,2 D,2 G,4 | %64
w: Do- mi-|ne; in|sae- cu- la sae- cu-|lo- rum lau-|da- bunt|te, in sae- cu- la|sae- cu- lo-|
 C,6 F,2 | D,4 A,4 | D,2 D,2 G,F,G,A, | _B,4 G,4 | D,6 D,2 | _B,,6 A,,2 | G,,8- | G,,4 G,,4 | %72
w: rum lau-|da- bunt|te, lau- da- * * *|* bunt|te, lau-|da- *||* bunt|
 D,8- | D,8 |] %74
w: te.|_|
V:3
 x8 | z2 z2 z2 x18 |[M:3/2] F2 E2 F2 G2 A2 B2 | c2 e2 d2 c2 B2 G2 | [FAc]4 [FAc]4 [EGc]4 | %5
 [DFA]6 [DFA]2 [CEA]4 | [E^G]8 [EG]4 | E6 F2 G4 | E4 D8 | E12 | G6 A2 F4 | G4 E8 |[M:4/4] D4 d4 | %13
 B4 c3 c | A2 B3 B G2 | A3 G ^F2 G2- | GE A4 ^G2 | A8 | D6 B,2 | A4 ^F2 G2- | GG E2 F3 F | %21
 D2 A2 c4 | B4 F4 | E8 | A8 | E2 G3 G F2 | E4 E4 | D4 z2 A2 | _B4 A4 | [EA]4 A2 ^G2 | A2 E2 F4 | %31
 E4 [FA]4 | z4 z2 A2 | c2 c2 B4 | A4 z2 D2 | F8 | E4 z2 G2 | c2 c2 B4 | A4 z2 A2 | A2 A2 B4 | %40
 G2 G2 G2 G2 | c4 A4 | z2 D2 G3 F | E2 D2 E4 | D8 | [D^FA]8 | [D^FA]8 | G4 [FAc]4 | [Ac]4 d4 | %49
 [EGB]4 [EGc]4 | [Ge]4 [^FAd]4 | [DGB]4 z2 [B,EG]2 | [CEG]4 z2 [CEG]2 | [EGc]4 [FAc]2 F2 | %54
 [FA]4 [DFA]2 [DGB]2 | [EGc]3 [EGc] [EGc]2 [CEG]2 | [EG]2 [EA]2 [DF]2 [DG]2 | [^CE]6 [CE]2 | %58
 D2 D2 [^FA]2 [FA][FA] | [^CE]2 [CE]2 [B,EG]4 | [B,DG]4 [CE]4 | FG A4 ^G2 | [^CA]4 z2 E2 | %63
 A2 AA B2 B2 | c4 G2 C2 | F4 E4 | D4 z2 D2 | GFGA _B2 B2 | [^FA]8 | [DF_B]2 [DFc]2 [Fd]4 | _B6 A2 | %71
 G4 G4 | ^F6 [EG]2 | [D^FA]8 |] %74
V:4
 x8 | z2 z2 z2 x18 |[M:3/2] D,8 D,4 | A,8 E,4 | F,8 C,4 | D,6 D,2 A,,4 | E,8 E,4 | C,6 C,2 C,4 | %8
 C,4 G,,8 | C,12 | C6 A,2 _B,4 | G,4 A,8 |[M:4/4] D,8 | G,4 E,2 F,2- | F,F, D,2 E,3 E, | %15
 C,2 D,3 D, B,,2 | C,3 D, E,4 | A,,4 A,4 | ^F,2 G,3 G, E,2 | F,3 F, D,2 E,2- | E,D, ^C,2 D,4- | %21
 D,2 C,B,,A,,B,,C,D, | E,4 F,4 | E,8 | A,,4 A,,2 C,2- | C,C, G,,2 A,,4- | A,,4 A,,4 | D,6 D,2 | %28
 G,,4 D,4 | C,2 A,,2 E,4 | A,,2 A,2 D,4 | A,4 F,2 D,2 | A,4 D,4 | C,2 A,,2 E,4 | A,,2 A,2 _B,4 | %35
 A,6 D,2 | C,2 A,,2 E,4 | A,,2 A,,2 E,4 | A,,2 A,,2 A,,2 A,,2 | D,4 G,,2 G,2 | G,2 G,2 C,4 | %41
 F,6 D,2 | G,4 G,4 | A,8 | D,8 | D,8 | D,8 | B,,2 C,2 F,,3 F,, | F,,2 F,2 F,2 D,2 | E,4 C,4 | %50
 D,4 D,4 | G,,2 G,2 G,4 | C,6 C,2 | C,4 F,,2 F,2 | F,4 D,2 G,2 | C,3 C, C,2 C2 | C2 A,2 _B,2 G,2 | %57
 A,4 A,4 | D,6 D,2 | A,2 A,A, E,2 E,2 | G,4 C,2 A,,2 | D,4 E,4 | A,,2 A,,2 A,2 A,A, | D,2 D,2 G,4 | %64
 C,6 F,2 | D,4 A,4 | D,4 G,4 | G,,4 G,,4 | D,6 D,2 | _B,,6 A,,2 | G,,8- | G,,4 G,,4 | D,8- | D,8 |] %74
V:5
 x8 | x24 |[M:3/2] x12 | x12 | x12 | x12 | D2 E2 D2 C2 B,4 | C6 C2 C4 | C4 C4 B,4 | [G,C]12 | %10
 E6 F2 D4 | E4 D4 ^C4 |[M:4/4] A,4 ^F4 | [DG]4 A4 | C2 G2 G2 B,2 | E2 A,2 A,2 D2 | A,4 B,4 | ^C8 | %18
 A,2 B,2 B,2 ^G,2 | C4 A,2 G,2 | G,2 A,2 A,4 | x8 | x8 | x8 | x8 | G,2 B,2 C4 | C4 C4 | z4 z2 ^F2 | %28
 D4 ^F4 | x8 | E2 E2 A,4 | C4 D4 | D2 ^C2 D2 F2 | A,4 A2 ^G2 | C4 G4 | C6 A,2 | C4 B,4 | %37
 E2 E2 A2 ^G2 | E4 ^C4 | ^F4 G4 | [B,D]4 [CE]4 | F8 | _B,4 B,4 | ^C2 D4 C2 | x8 | x8 | x8 | x8 | %48
 F4 A2 [DGB]2 | x8 | x8 | x8 | x8 | x8 | x8 | x8 | x8 | x8 | x8 | x8 | x8 | A,4 B,4 | x8 | %63
 F4 [DG]4 | [EG]4 E2 A,2 | [A,D]4 ^C4 | ^F4 x4 | D8 | x8 | x8 | D8 | [_B,D]4 [B,D]4 | A,8 | A,8 |] %74

